dist/img/advantage/Flawless_reputation_icon.svg

<svg width="71" height="70" viewBox="0 0 71 70" fill="none" xmlns="http://www.w3.org/2000/svg">
<g opacity="0.3">
<circle cx="35.5" cy="35.0001" r="20.1064" fill="#333333"/>
<circle cx="35.5" cy="35.0001" r="26.8333" stroke="#333333" stroke-width="7"/>
<path d="M38.8444 21.8312C38.5171 21.9331 38.2134 22.264 37.9307 22.8286C37.7396 23.2092 37.6479 23.4803 37.5537 23.9505C37.3678 24.846 37.2395 25.331 37.0798 25.7141C36.8861 26.1867 36.7369 26.4155 36.407 26.7513C36.064 27.0996 35.6373 27.5896 35.0273 28.3259C33.9461 29.6318 33.2313 30.393 32.7837 30.7089C32.5349 30.8855 32.514 30.8954 32.2679 30.9352C31.9145 30.9949 31.6762 31.1566 31.5139 31.4526L31.4406 31.5845V36.4226V41.2606L31.5113 41.3875C31.6684 41.6736 32.0113 41.875 32.4093 41.9198C32.8936 41.9745 33.645 42.1785 34.9357 42.6039C35.331 42.7357 35.708 42.8576 35.7734 42.875C35.8389 42.8949 36.1138 42.9795 36.3887 43.0616C37.5354 43.4148 38.9988 43.6909 40.0801 43.7605C40.5958 43.7929 42.3839 43.7929 42.8683 43.7605C43.9443 43.6859 44.7323 43.3849 45.3292 42.8153C45.9523 42.2258 46.2455 41.4771 46.2455 40.4846V40.0766L46.3947 39.91C46.7272 39.5393 46.921 39.1762 47.0571 38.6712C47.1985 38.1513 47.2116 37.6514 47.0937 37.2086L47.0519 37.0494L47.1618 36.8952C47.3294 36.6589 47.5231 36.2559 47.5938 35.9873C47.7482 35.4102 47.7273 34.8206 47.531 34.1739L47.4786 34.0023L47.5938 33.863C47.8739 33.5247 48.0676 33.1441 48.2038 32.6665C48.2666 32.4476 48.2719 32.3929 48.2719 31.8954C48.2719 31.383 48.2692 31.3506 48.2012 31.1367C47.9027 30.2089 47.1068 29.4527 46.167 29.2114C45.8004 29.1169 45.5858 29.1094 43.3866 29.1094C42.2085 29.1094 41.2451 29.1045 41.2451 29.0995C41.2451 29.0323 41.4467 28.607 41.7399 28.0573C42.1195 27.3434 42.2504 27.0225 42.3813 26.4653C42.4887 26.0151 42.5096 25.7812 42.4939 25.1245C42.4703 24.04 42.342 23.55 41.9153 22.9306C41.5435 22.3859 40.9571 22.0451 40.0984 21.8685C39.7685 21.8013 39.0093 21.7789 38.8444 21.8312Z" fill="white"/>
<path d="M24.8904 30.9601C24.6312 31.0397 24.3982 31.2312 24.2751 31.4675L24.2149 31.5845V36.435V41.2855L24.3039 41.4422C24.4139 41.6338 24.55 41.7532 24.7752 41.8551L24.948 41.9323H27.3173C29.574 41.9323 29.6918 41.9298 29.8175 41.885C29.9981 41.8203 30.1997 41.6736 30.2966 41.5343C30.472 41.283 30.4589 41.681 30.4536 36.3852L30.4458 31.5845L30.3856 31.4675C30.2887 31.281 30.1107 31.1118 29.9143 31.0198L29.7389 30.9377L27.3696 30.9327C25.4585 30.9278 24.9794 30.9352 24.8904 30.9601ZM27.4246 38.3254C27.6916 38.415 27.9587 38.6986 28.0241 38.9622C28.0686 39.1339 28.0451 39.4174 27.977 39.5642C27.9011 39.7259 27.689 39.9323 27.5084 40.0194C27.3696 40.0841 27.333 40.0915 27.0947 40.0915C26.8617 40.0915 26.8172 40.0841 26.6863 40.0244C26.5083 39.9398 26.2936 39.7433 26.2203 39.5965C26.1051 39.3602 26.1025 39.0219 26.2177 38.8005C26.2936 38.6488 26.4612 38.4747 26.6052 38.3951C26.8355 38.2657 27.1654 38.2384 27.4246 38.3254Z" fill="white"/>
<path d="M27.4246 38.3254C27.6916 38.415 27.9587 38.6986 28.0241 38.9622C28.0686 39.1339 28.0451 39.4174 27.977 39.5642C27.9011 39.7259 27.689 39.9323 27.5084 40.0194C27.3696 40.0841 27.333 40.0915 27.0947 40.0915C26.8617 40.0915 26.8172 40.0841 26.6863 40.0244C26.5083 39.9398 26.2936 39.7433 26.2203 39.5965C26.1051 39.3602 26.1025 39.0219 26.2177 38.8005C26.2936 38.6488 26.4612 38.4747 26.6052 38.3951C26.8355 38.2657 27.1654 38.2384 27.4246 38.3254Z" fill="white"/>
</g>
</svg>

<svg width="71" height="70" fill="none" xmlns="http://www.w3.org/2000/svg"><g opacity=".3"><circle cx="35.5" cy="35" r="20.106" fill="#333"/><circle cx="35.5" cy="35" r="26.833" stroke="#333" stroke-width="7"/><path d="M38.844 21.831c-.327.102-.63.433-.913.998a3.88 3.88 0 00-.377 1.122c-.186.895-.315 1.38-.474 1.763-.194.473-.343.702-.673 1.037-.343.349-.77.839-1.38 1.575-1.08 1.306-1.796 2.067-2.243 2.383-.25.177-.27.186-.516.226-.354.06-.592.222-.754.518l-.073.131v9.677l.07.127c.157.286.5.487.898.532.485.054 1.236.258 2.527.684.395.132.772.254.837.271.066.02.34.105.616.187 1.146.353 2.61.629 3.691.699a40 40 0 002.788 0c1.076-.075 1.864-.376 2.461-.946.623-.59.916-1.338.916-2.33v-.408l.15-.167c.332-.37.526-.734.662-1.239.142-.52.155-1.02.037-1.462l-.042-.16.11-.154c.167-.236.361-.64.432-.908.154-.577.133-1.166-.063-1.813l-.052-.172.115-.139c.28-.338.474-.719.61-1.197.063-.218.068-.273.068-.77 0-.513-.003-.545-.07-.76a2.96 2.96 0 00-2.035-1.925c-.367-.094-.581-.102-2.78-.102-1.178 0-2.142-.005-2.142-.01 0-.067.202-.492.495-1.042.38-.714.51-1.034.641-1.592.108-.45.129-.684.113-1.34-.024-1.085-.152-1.575-.579-2.194-.371-.545-.958-.886-1.817-1.063-.33-.067-1.089-.09-1.254-.037zM24.89 30.96a1.06 1.06 0 00-.615.508l-.06.116v9.701l.089.157c.11.192.246.311.471.413l.173.077h2.37c2.256 0 2.374-.002 2.5-.047.18-.065.382-.211.479-.35.175-.252.162.146.157-5.15l-.008-4.8-.06-.117a1.053 1.053 0 00-.472-.448l-.175-.082-2.37-.005c-1.91-.005-2.39.002-2.479.027zm2.535 7.365c.267.09.534.374.6.637.044.172.02.455-.048.602a1.148 1.148 0 01-.469.455c-.138.065-.175.073-.413.073-.233 0-.278-.008-.409-.068-.178-.084-.392-.28-.466-.428-.115-.236-.117-.574-.002-.795.076-.152.243-.326.387-.406.23-.13.56-.157.82-.07z" fill="#fff"/><path d="M27.425 38.325c.267.09.534.374.6.637.044.172.02.455-.048.602a1.148 1.148 0 01-.469.455c-.138.065-.175.073-.413.073-.233 0-.278-.008-.409-.068-.178-.084-.392-.28-.466-.428-.115-.236-.117-.574-.002-.795.076-.152.243-.326.387-.406.23-.13.56-.157.82-.07z" fill="#fff"/></g></svg>
